svg/color/ichi.svg

<?xml version="1.0" encoding="UTF-8" ?>
<!DOCTYPE svg PUBLIC "-//W3C//DTD SVG 1.1//EN" "http://www.w3.org/Graphics/SVG/1.1/DTD/svg11.dtd">
<svg width="250pt" height="250pt" viewBox="0 0 250 250" version="1.1" xmlns="http://www.w3.org/2000/svg">
<g id="#fefefeff">
<path fill="#fefefe" opacity="1.00" d=" M 0.00 0.00 L 117.60 0.00 C 101.06 1.35 84.63 5.41 69.73 12.80 C 42.66 26.06 20.76 49.49 9.36 77.40 C 3.75 90.40 0.97 104.46 0.00 118.55 L 0.00 0.00 Z" />
<path fill="#fefefe" opacity="1.00" d=" M 135.35 0.00 L 250.00 0.00 L 250.00 119.56 C 248.68 91.06 237.52 62.91 218.24 41.79 C 203.02 24.37 182.63 11.71 160.55 4.98 C 152.28 2.72 143.81 1.31 135.35 0.00 Z" />
<path fill="#fefefe" opacity="1.00" d=" M 58.48 73.98 C 58.42 70.56 62.61 67.59 65.78 69.17 C 69.99 71.17 73.74 74.03 78.05 75.85 C 97.35 84.61 119.10 85.89 139.96 84.13 C 155.07 82.75 170.03 78.17 182.82 69.91 C 184.87 68.26 187.86 68.34 189.60 70.40 C 193.10 73.29 191.53 78.84 188.14 81.12 C 182.99 84.63 177.26 87.27 171.48 89.56 C 168.91 90.70 165.87 91.07 163.70 92.95 C 163.58 101.27 163.52 109.61 163.69 117.93 C 164.71 119.07 166.46 118.83 167.81 119.34 C 172.54 119.86 175.70 126.58 172.09 130.14 C 169.50 131.34 166.56 131.13 163.78 131.28 C 163.69 140.27 163.07 149.34 164.15 158.28 C 170.88 159.57 177.05 162.73 183.10 165.81 C 186.24 167.58 190.06 169.30 191.24 173.02 C 192.37 176.04 191.05 180.00 187.69 180.81 C 185.57 182.03 183.45 180.32 181.62 179.38 C 165.73 169.32 146.65 165.32 128.03 165.25 C 110.28 164.67 92.14 167.30 76.05 175.08 C 71.94 176.97 68.38 180.03 64.00 181.30 C 61.98 180.84 59.71 179.97 58.93 177.86 C 57.33 174.12 59.70 169.93 63.01 168.04 C 69.45 164.17 76.39 161.16 83.47 158.67 C 84.55 158.09 86.70 157.77 86.36 156.08 C 86.34 147.83 86.62 139.57 86.19 131.33 C 83.76 130.73 80.79 131.10 78.95 129.09 C 76.32 126.99 75.19 122.33 77.92 119.90 C 80.47 118.57 83.44 118.84 86.22 118.70 C 86.56 110.45 86.33 102.18 86.37 93.92 C 86.71 92.26 84.72 91.86 83.62 91.37 C 76.42 89.03 69.50 85.87 63.02 81.96 C 60.23 80.36 58.15 77.30 58.48 73.98 M 99.34 96.13 C 99.05 103.66 99.34 111.21 99.25 118.75 C 116.42 118.81 133.59 118.81 150.77 118.75 C 150.63 110.92 151.08 103.07 150.49 95.25 C 133.82 98.30 116.65 98.11 99.95 95.44 L 99.34 96.13 M 99.23 131.22 C 99.20 138.96 99.33 146.69 99.15 154.42 C 103.18 154.32 107.14 153.50 111.16 153.18 C 124.38 151.68 137.70 152.88 150.86 154.42 C 150.67 146.70 150.84 138.97 150.75 131.24 C 133.58 131.24 116.40 131.25 99.23 131.22 Z" />
<path fill="#fefefe" opacity="1.00" d=" M 0.00 132.40 C 2.37 166.09 18.13 199.10 44.49 220.53 C 64.74 238.09 90.94 248.12 117.57 250.00 L 0.00 250.00 L 0.00 132.40 Z" />
<path fill="#fefefe" opacity="1.00" d=" M 233.00 188.06 C 243.00 171.20 248.60 151.94 250.00 132.42 L 250.00 250.00 L 131.43 250.00 C 143.49 249.31 155.47 246.94 166.85 242.86 C 194.47 233.17 218.26 213.32 233.00 188.06 Z" />
</g>
<g id="#0167e8ff">
<path fill="#0167e8" opacity="1.00" d=" M 117.60 0.00 L 135.35 0.00 C 143.81 1.31 152.28 2.72 160.55 4.98 C 182.63 11.71 203.02 24.37 218.24 41.79 C 237.52 62.91 248.68 91.06 250.00 119.56 L 250.00 132.42 C 248.60 151.94 243.00 171.20 233.00 188.06 C 218.26 213.32 194.47 233.17 166.85 242.86 C 155.47 246.94 143.49 249.31 131.43 250.00 L 117.57 250.00 C 90.94 248.12 64.74 238.09 44.49 220.53 C 18.13 199.10 2.37 166.09 0.00 132.40 L 0.00 118.55 C 0.97 104.46 3.75 90.40 9.36 77.40 C 20.76 49.49 42.66 26.06 69.73 12.80 C 84.63 5.41 101.06 1.35 117.60 0.00 M 58.48 73.98 C 58.15 77.30 60.23 80.36 63.02 81.96 C 69.50 85.87 76.42 89.03 83.62 91.37 C 84.72 91.86 86.71 92.26 86.37 93.92 C 86.33 102.18 86.56 110.45 86.22 118.70 C 83.44 118.84 80.47 118.57 77.92 119.90 C 75.19 122.33 76.32 126.99 78.95 129.09 C 80.79 131.10 83.76 130.73 86.19 131.33 C 86.62 139.57 86.34 147.83 86.36 156.08 C 86.70 157.77 84.55 158.09 83.47 158.67 C 76.39 161.16 69.45 164.17 63.01 168.04 C 59.70 169.93 57.33 174.12 58.93 177.86 C 59.71 179.97 61.98 180.84 64.00 181.30 C 68.38 180.03 71.94 176.97 76.05 175.08 C 92.14 167.30 110.28 164.67 128.03 165.25 C 146.65 165.32 165.73 169.32 181.62 179.38 C 183.45 180.32 185.57 182.03 187.69 180.81 C 191.05 180.00 192.37 176.04 191.24 173.02 C 190.06 169.30 186.24 167.58 183.10 165.81 C 177.05 162.73 170.88 159.57 164.15 158.28 C 163.07 149.34 163.69 140.27 163.78 131.28 C 166.56 131.13 169.50 131.34 172.09 130.14 C 175.70 126.58 172.54 119.86 167.81 119.34 C 166.46 118.83 164.71 119.07 163.69 117.93 C 163.52 109.61 163.58 101.27 163.70 92.95 C 165.87 91.07 168.91 90.70 171.48 89.56 C 177.26 87.27 182.99 84.63 188.14 81.12 C 191.53 78.84 193.10 73.29 189.60 70.40 C 187.86 68.34 184.87 68.26 182.82 69.91 C 170.03 78.17 155.07 82.75 139.96 84.13 C 119.10 85.89 97.35 84.61 78.05 75.85 C 73.74 74.03 69.99 71.17 65.78 69.17 C 62.61 67.59 58.42 70.56 58.48 73.98 Z" />
<path fill="#0167e8" opacity="1.00" d=" M 99.34 96.13 L 99.95 95.44 C 116.65 98.11 133.82 98.30 150.49 95.25 C 151.08 103.07 150.63 110.92 150.77 118.75 C 133.59 118.81 116.42 118.81 99.25 118.75 C 99.34 111.21 99.05 103.66 99.34 96.13 Z" />
<path fill="#0167e8" opacity="1.00" d=" M 99.23 131.22 C 116.40 131.25 133.58 131.24 150.75 131.24 C 150.84 138.97 150.67 146.70 150.86 154.42 C 137.70 152.88 124.38 151.68 111.16 153.18 C 107.14 153.50 103.18 154.32 99.15 154.42 C 99.33 146.69 99.20 138.96 99.23 131.22 Z" />
</g>
</svg>

<?xml version="1.0" encoding="utf-8"?>
<!-- Generator: Adobe Illustrator 26.0.3, SVG Export Plug-In . SVG Version: 6.00 Build 0)  -->
<svg version="1.1" id="Layer_1" xmlns="http://www.w3.org/2000/svg" xmlns:xlink="http://www.w3.org/1999/xlink" x="0px" y="0px"
	 viewBox="0 0 250 250" style="enable-background:new 0 0 250 250;" xml:space="preserve">
<style type="text/css">
	.st0{fill:#FEFEFE;}
	.st1{fill:#0167E8;}
</style>
<g id="_x23_fefefeff">
	<path class="st0" d="M58.5,74c-0.1-3.4,4.1-6.4,7.3-4.8c4.2,2,8,4.9,12.3,6.7c19.3,8.8,41,10,61.9,8.3c15.1-1.4,30.1-6,42.9-14.2
		c2-1.7,5-1.6,6.8,0.5c3.5,2.9,1.9,8.4-1.5,10.7c-5.1,3.5-10.9,6.1-16.7,8.4c-2.6,1.1-5.6,1.5-7.8,3.4c-0.1,8.3-0.2,16.7,0,25
		c1,1.1,2.8,0.9,4.1,1.4c4.7,0.5,7.9,7.2,4.3,10.8c-2.6,1.2-5.5,1-8.3,1.1c-0.1,9-0.7,18.1,0.4,27c6.7,1.3,12.9,4.4,19,7.5
		c3.1,1.8,7,3.5,8.1,7.2c1.1,3-0.2,7-3.6,7.8c-2.1,1.2-4.2-0.5-6.1-1.4c-15.9-10.1-35-14.1-53.6-14.1c-17.8-0.6-35.9,2.1-52,9.8
		c-4.1,1.9-7.7,4.9-12.1,6.2c-2-0.5-4.3-1.3-5.1-3.4c-1.6-3.7,0.8-7.9,4.1-9.8c6.4-3.9,13.4-6.9,20.5-9.4c1.1-0.6,3.2-0.9,2.9-2.6
		c0-8.2,0.3-16.5-0.2-24.8c-2.4-0.6-5.4-0.2-7.2-2.2c-2.6-2.1-3.8-6.8-1-9.2c2.6-1.3,5.5-1.1,8.3-1.2c0.3-8.2,0.1-16.5,0.2-24.8
		c0.3-1.7-1.7-2.1-2.8-2.5C76.4,89,69.5,85.9,63,82C60.2,80.4,58.2,77.3,58.5,74 M99.3,96.1c-0.3,7.5,0,15.1-0.1,22.6
		c17.2,0.1,34.3,0.1,51.5,0c-0.1-7.8,0.3-15.7-0.3-23.5c-16.7,3.1-33.8,2.9-50.5,0.2L99.3,96.1 M99.2,131.2c0,7.7,0.1,15.5-0.1,23.2
		c4-0.1,8-0.9,12-1.2c13.2-1.5,26.5-0.3,39.7,1.2c-0.2-7.7,0-15.4-0.1-23.2C133.6,131.2,116.4,131.2,99.2,131.2z"/>
</g>
<g id="_x23_0167e8ff">
	<path class="st1" d="M117.6,0h17.8c8.5,1.3,16.9,2.7,25.2,5c22.1,6.7,42.5,19.4,57.7,36.8c19.3,21.1,30.4,49.3,31.8,77.8v12.9
		c-1.4,19.5-7,38.8-17,55.6c-14.7,25.3-38.5,45.1-66.1,54.8c-11.4,4.1-23.4,6.4-35.4,7.1h-13.9c-26.6-1.9-52.8-11.9-73.1-29.5
		C18.1,199.1,2.4,166.1,0,132.4v-13.8c1-14.1,3.8-28.2,9.4-41.2c11.4-27.9,33.3-51.3,60.4-64.6C84.6,5.4,101.1,1.4,117.6,0 M58.5,74
		c-0.3,3.3,1.8,6.4,4.5,8c6.5,3.9,13.4,7.1,20.6,9.4c1.1,0.5,3.1,0.9,2.8,2.5c0,8.3,0.2,16.5-0.2,24.8c-2.8,0.1-5.8-0.1-8.3,1.2
		c-2.7,2.4-1.6,7.1,1,9.2c1.8,2,4.8,1.6,7.2,2.2c0.4,8.2,0.1,16.5,0.2,24.8c0.3,1.7-1.8,2-2.9,2.6c-7.1,2.5-14,5.5-20.5,9.4
		c-3.3,1.9-5.7,6.1-4.1,9.8c0.8,2.1,3,3,5.1,3.4c4.4-1.3,7.9-4.3,12.1-6.2c16.1-7.8,34.2-10.4,52-9.8c18.6,0.1,37.7,4.1,53.6,14.1
		c1.8,0.9,4,2.6,6.1,1.4c3.4-0.8,4.7-4.8,3.6-7.8c-1.2-3.7-5-5.4-8.1-7.2c-6.1-3.1-12.2-6.2-19-7.5c-1.1-8.9-0.5-18-0.4-27
		c2.8-0.1,5.7,0.1,8.3-1.1c3.6-3.6,0.4-10.3-4.3-10.8c-1.3-0.5-3.1-0.3-4.1-1.4c-0.2-8.3-0.1-16.7,0-25c2.2-1.9,5.2-2.2,7.8-3.4
		c5.8-2.3,11.5-4.9,16.7-8.4c3.4-2.3,5-7.8,1.5-10.7c-1.7-2.1-4.7-2.1-6.8-0.5C170,78.2,155.1,82.8,140,84.1
		c-20.9,1.8-42.6,0.5-61.9-8.3c-4.3-1.8-8.1-4.7-12.3-6.7C62.6,67.6,58.4,70.6,58.5,74z"/>
	<path class="st1" d="M99.3,96.1l0.6-0.7c16.7,2.7,33.9,2.9,50.5-0.2c0.6,7.8,0.1,15.7,0.3,23.5c-17.2,0.1-34.4,0.1-51.5,0
		C99.3,111.2,99.1,103.7,99.3,96.1z"/>
	<path class="st1" d="M99.2,131.2c17.2,0,34.3,0,51.5,0c0.1,7.7-0.1,15.5,0.1,23.2c-13.2-1.5-26.5-2.7-39.7-1.2c-4,0.3-8,1.1-12,1.2
		C99.3,146.7,99.2,139,99.2,131.2z"/>
</g>
</svg>
